;Generated by Cura LulzBot Edition GCodeWriter Version: 3.6.20
;FLAVOR:Marlin
;TIME:6470
;Filament used: 3.23032m
;Layer height: 0.25
;Generated with Cura_SteamEngine 3.6.20
M82 ;absolute extrusion mode
;This G-Code has been generated specifically for the LulzBot TAZ 6 with standard extruder
M73 P0 ; clear GLCD progress bar
M75 ; start GLCD timer
G26 ; clear potential 'probe fail' condition
M107 ; disable fans
M420 S0 ; disable previous leveling matrix
G90 ; absolute positioning
M82 ; set extruder to absolute mode
G92 E0 ; set extruder position to 0
M140 S60.0 ; start bed heating up
M109 R140 ; soften filament before homing Z
G28 ; Home all axis
G1 E-30 F100 ; retract filament
M109 R140 ; wait for extruder to reach wiping temp
G1 X-15 Y100 F3000 ; move above wiper pad
G1 Z1 ; push nozzle into wiper
G1 X-17 Y95 F1000 ; slow wipe
G1 X-17 Y90 F1000 ; slow wipe
G1 X-17 Y85 F1000 ; slow wipe
G1 X-15 Y90 F1000 ; slow wipe
G1 X-17 Y80 F1000 ; slow wipe
G1 X-15 Y95 F1000 ; slow wipe
G1 X-17 Y75 F2000 ; fast wipe
G1 X-15 Y65 F2000 ; fast wipe
G1 X-17 Y70 F2000 ; fast wipe
G1 X-15 Y60 F2000 ; fast wipe
G1 X-17 Y55 F2000 ; fast wipe
G1 X-15 Y50 F2000 ; fast wipe
G1 X-17 Y40 F2000 ; fast wipe
G1 X-15 Y45 F2000 ; fast wipe
G1 X-17 Y35 F2000 ; fast wipe
G1 X-15 Y40 F2000 ; fast wipe
G1 X-17 Y70 F2000 ; fast wipe
G1 X-15 Y30 Z2 F2000 ; fast wipe
G1 X-17 Y35 F2000 ; fast wipe
G1 X-15 Y25 F2000 ; fast wipe
G1 X-17 Y30 F2000 ; fast wipe
G1 X-15 Y25 Z1.5 F1000 ; slow wipe
G1 X-17 Y23 F1000 ; slow wipe
G1 Z10 ; raise extruder
M109 R140 ; wait for extruder to reach probe temp
G1 X-9 Y-9 ; move above first probe point
M204 S100 ; set probing acceleration
G29 ; start auto-leveling sequence
M420 S1 ; activate bed level matrix
M425 Z			     ; use measured Z backlash for compensation
M425 Z F0		     ; turn off measured Z backlash compensation. (if activated in the quality settings, this command will automatically be ignored)
M204 S500 ; restore standard acceleration
G1 X0 Y0 Z15 F5000 ; move up off last probe point
G4 S1 ; pause
M400 ; wait for moves to finish
M117 Heating... ; progress indicator message on LCD
M109 R200 ; wait for extruder to reach printing temp
M190 R60.0 ; wait for bed to reach printing temp
G1 Z2 E0 F75 ; prime tiny bit of filament into the nozzle
M117 TAZ 6 Printing... ; progress indicator message on LCD

M221 S100 T0
G92 E0
G1 F600 E-1
;LAYER_COUNT:120
;LAYER:0
M107
G0 F2625 X106.869 Y105.811 Z0.425
;TYPE:SKIRT
G1 F600 E0
G1 F900 X107.131 Y105.584 E0.01155
G1 X107.741 Y105.11 E0.03728
G1 X108.166 Y104.83 E0.05423
G1 X108.463 Y104.685 E0.06524
G1 X109.178 Y104.381 E0.09112
G1 X109.661 Y104.219 E0.10809
G1 X110.083 Y104.143 E0.12238
G1 X111.148 Y104.022 E0.15808
G1 X111.517 Y104.001 E0.17039
G1 X168.982 Y104.032 E2.08457
G1 X169.46 Y104.068 E2.10054
G1 X169.976 Y104.145 E2.11792
G1 X170.709 Y104.344 E2.14322
G1 X171.435 Y104.636 E2.16928
G1 X171.891 Y104.862 E2.18624
G1 X172.177 Y105.055 E2.19773
G1 X172.801 Y105.525 E2.22375
G1 X173.183 Y105.862 E2.24072
G1 X173.41 Y106.124 E2.25227
G1 X173.889 Y106.739 E2.27823
G1 X174.17 Y107.164 E2.2952
G1 X174.317 Y107.466 E2.30639
G1 X174.62 Y108.18 E2.33223
G1 X174.781 Y108.664 E2.34922
G1 X174.857 Y109.083 E2.36341
G1 X174.978 Y110.147 E2.39908
G1 X174.999 Y110.515 E2.41135
G1 X174.987 Y169.785 E4.38566
G1 X174.958 Y170.215 E4.40002
G1 X174.863 Y170.925 E4.42388
G1 X174.756 Y171.423 E4.44084
G1 X174.657 Y171.707 E4.45086
G1 X174.364 Y172.435 E4.477
G1 X174.137 Y172.892 E4.494
G1 X173.944 Y173.179 E4.50552
G1 X173.472 Y173.805 E4.53164
G1 X173.134 Y174.186 E4.5486
G1 X172.872 Y174.413 E4.56015
G1 X172.26 Y174.889 E4.58597
G1 X171.835 Y175.17 E4.60295
G1 X171.537 Y175.315 E4.61399
G1 X170.822 Y175.619 E4.63987
G1 X170.339 Y175.781 E4.65684
G1 X169.917 Y175.857 E4.67112
G1 X168.852 Y175.978 E4.70682
G1 X168.484 Y175.999 E4.7191
G1 X111.215 Y175.987 E6.62675
G1 X110.782 Y175.958 E6.64121
G1 X110.07 Y175.862 E6.66514
G1 X109.572 Y175.754 E6.68211
G1 X109.296 Y175.658 E6.69185
G1 X108.579 Y175.371 E6.71757
G1 X108.123 Y175.145 E6.73453
G1 X107.824 Y174.944 E6.74653
G1 X107.184 Y174.459 E6.77327
G1 X106.803 Y174.121 E6.79024
G1 X106.577 Y173.858 E6.80179
G1 X106.101 Y173.243 E6.8277
G1 X105.822 Y172.817 E6.84466
G1 X105.675 Y172.514 E6.85588
G1 X105.37 Y171.789 E6.88208
G1 X105.21 Y171.306 E6.89903
G1 X105.136 Y170.889 E6.91313
G1 X105.022 Y169.866 E6.94742
G1 X105.002 Y169.505 E6.95946
G1 X105.014 Y110.204 E8.9348
G1 X105.043 Y109.772 E8.94922
G1 X105.137 Y109.073 E8.97272
G1 X105.244 Y108.575 E8.98969
G1 X105.343 Y108.293 E8.99964
G1 X105.636 Y107.565 E9.02578
G1 X105.863 Y107.108 E9.04278
G1 X106.057 Y106.82 E9.05435
G1 X106.531 Y106.192 E9.08055
G1 X106.869 Y105.811 E9.09752
G1 F600 E8.09752
;MESH:
G0 F2625 X111.117 Y106.598
G0 X111.304 Y108.019
G0 X169.307 Y108.18
G0 X169.332 Y108.084
;TYPE:WALL-INNER
G1 F600 E9.09752
G1 F900 X169.874 Y108.308 E9.11705
G1 X170.337 Y108.663 E9.13649
G1 X170.692 Y109.126 E9.15592
G1 X170.916 Y109.668 E9.17546
G1 X171 Y110.303 E9.1968
G1 X171 Y169.697 E11.17523
G1 X170.916 Y170.332 E11.19657
G1 X170.692 Y170.874 E11.2161
G1 X170.337 Y171.337 E11.23554
G1 X169.874 Y171.692 E11.25497
G1 X169.332 Y171.916 E11.27451
G1 X168.697 Y172 E11.29584
G1 X111.303 Y172 E13.20766
G1 X110.668 Y171.916 E13.22899
G1 X110.129 Y171.693 E13.24842
G1 X109.662 Y171.333 E13.26807
G1 X109.302 Y170.86 E13.28787
G1 X109.083 Y170.327 E13.30706
G1 X109 Y169.697 E13.32823
G1 X109 Y110.303 E15.30666
G1 X109.084 Y109.668 E15.328
G1 X109.308 Y109.126 E15.34753
G1 X109.663 Y108.663 E15.36697
G1 X110.126 Y108.308 E15.3864
G1 X110.668 Y108.084 E15.40594
G1 X111.303 Y108 E15.42728
G1 X168.697 Y108 E17.33909
G1 X169.332 Y108.084 E17.36043
G0 F2625 X169.461 Y107.596
;TYPE:WALL-OUTER
G1 F900 X170.126 Y107.871 E17.3844
G1 X170.693 Y108.307 E17.40822
G1 X171.129 Y108.874 E17.43205
G1 X171.404 Y109.539 E17.45602
G1 X171.5 Y110.268 E17.48051
G1 X171.5 Y169.732 E19.46128
G1 X171.404 Y170.461 E19.48577
G1 X171.129 Y171.126 E19.50974
G1 X170.693 Y171.693 E19.53357
G1 X170.126 Y172.129 E19.55739
G1 X169.461 Y172.404 E19.58136
G1 X168.732 Y172.5 E19.60586
G1 X111.268 Y172.5 E21.52
G1 X110.539 Y172.404 E21.5445
G1 X109.877 Y172.13 E21.56836
G1 X109.303 Y171.687 E21.59251
G1 X108.866 Y171.113 E21.61654
G1 X108.595 Y170.454 E21.64028
G1 X108.5 Y169.732 E21.66454
G1 X108.5 Y110.268 E23.6453
G1 X108.596 Y109.539 E23.6698
G1 X108.871 Y108.874 E23.69377
G1 X109.307 Y108.307 E23.71759
G1 X109.874 Y107.871 E23.74142
G1 X110.539 Y107.596 E23.76539
G1 X111.268 Y107.5 E23.78988
G1 X168.732 Y107.5 E25.70403
G1 X169.461 Y107.596 E25.72852
G0 F2625 X169.692 Y107.691
G0 X169.206 Y108.562
;TYPE:SKIN
G1 F900 X169.629 Y108.736 E25.74376
G1 X169.988 Y109.012 E25.75884
G1 X170.264 Y109.371 E25.77393
G1 X170.438 Y109.794 E25.78916
G1 X170.51 Y110.338 E25.80744
G1 X170.51 Y169.662 E27.78354
G1 X170.438 Y170.206 E27.80182
G1 X170.264 Y170.629 E27.81706
G1 X169.988 Y170.988 E27.83214
G1 X169.629 Y171.264 E27.84723
G1 X169.206 Y171.438 E27.86246
G1 X168.662 Y171.51 E27.88074
G1 X111.338 Y171.51 E29.79022
G1 X110.796 Y171.438 E29.80844
G1 X110.377 Y171.265 E29.82354
G1 X110.011 Y170.982 E29.83895
G1 X109.731 Y170.615 E29.85432
G1 X109.561 Y170.202 E29.8692
G1 X109.49 Y169.663 E29.88731
G1 X109.49 Y110.338 E31.86345
G1 X109.562 Y109.794 E31.88173
G1 X109.736 Y109.371 E31.89696
G1 X110.012 Y109.012 E31.91205
G1 X110.371 Y108.736 E31.92713
G1 X110.794 Y108.562 E31.94237
G1 X111.338 Y108.49 E31.96065
G1 X168.662 Y108.49 E33.87013
G1 X169.206 Y108.562 E33.88841
G0 F2625 X170.257 Y110.153
G1 F900 X168.845 Y108.741 E33.95492
G0 F2625 X168.111 Y108.714
G1 F900 X170.284 Y110.887 E34.05729
G0 F2625 X170.284 Y111.594
G1 F900 X167.404 Y108.714 E34.19296
G0 F2625 X166.697 Y108.714
G1 F900 X170.284 Y112.301 E34.36194
G0 F2625 X170.284 Y113.008
G1 F900 X165.99 Y108.714 E34.56422
G0 F2625 X165.283 Y108.714
G1 F900 X170.284 Y113.715 E34.79981
G0 F2625 X170.284 Y114.422
G1 F900 X164.576 Y108.714 E35.0687
G0 F2625 X163.869 Y108.714
G1 F900 X170.284 Y115.129 E35.3709
G0 F2625 X170.284 Y115.836
G1 F900 X163.162 Y108.714 E35.7064
G0 F2625 X162.454 Y108.714
G1 F900 X170.284 Y116.543 E36.07523
G0 F2625 X170.284 Y117.251
G1 F900 X161.747 Y108.714 E36.47739
G0 F2625 X161.04 Y108.714
G1 F900 X170.284 Y117.958 E36.91286
G0 F2625 X170.284 Y118.665
G1 F900 X160.333 Y108.714 E37.38163
G0 F2625 X159.626 Y108.714
G1 F900 X170.284 Y119.372 E37.8837
G0 F2625 X170.284 Y120.079
G1 F900 X158.919 Y108.714 E38.41909
G0 F2625 X158.212 Y108.714
G1 F900 X170.284 Y120.786 E38.98777
G0 F2625 X170.284 Y121.493
G1 F900 X157.505 Y108.714 E39.58977
G0 F2625 X156.798 Y108.714
G1 F900 X170.284 Y122.2 E40.22506
G0 F2625 X170.284 Y122.907
G1 F900 X156.09 Y108.714 E40.89369
G0 F2625 X155.383 Y108.714
G1 F900 X170.284 Y123.614 E41.59562
G0 F2625 X170.284 Y124.322
G1 F900 X154.676 Y108.714 E42.33089
G0 F2625 X153.969 Y108.714
G1 F900 X170.284 Y125.029 E43.09945
G0 F2625 X170.284 Y125.736
G1 F900 X153.262 Y108.714 E43.90132
G0 F2625 X152.555 Y108.714
G1 F900 X170.284 Y126.443 E44.7365
G0 F2625 X170.284 Y127.15
G1 F900 X151.848 Y108.714 E45.60498
G0 F2625 X151.141 Y108.714
G1 F900 X170.284 Y127.857 E46.50677
G0 F2625 X170.284 Y128.564
G1 F900 X150.434 Y108.714 E47.44186
G0 F2625 X149.727 Y108.714
G1 F900 X170.284 Y129.271 E48.41026
G0 F2625 X170.284 Y129.978
G1 F900 X149.019 Y108.714 E49.41199
G0 F2625 X148.312 Y108.714
G1 F900 X170.284 Y130.686 E50.44705
G0 F2625 X170.284 Y131.393
G1 F900 X147.605 Y108.714 E51.51541
G0 F2625 X146.898 Y108.714
G1 F900 X170.284 Y132.1 E52.61707
G0 F2625 X170.284 Y132.807
G1 F900 X146.191 Y108.714 E53.75205
G0 F2625 X145.484 Y108.714
G1 F900 X170.284 Y133.514 E54.92032
G0 F2625 X170.284 Y134.221
G1 F900 X144.777 Y108.714 E56.12191
G0 F2625 X144.07 Y108.714
G1 F900 X170.284 Y134.928 E57.35679
G0 F2625 X170.284 Y135.635
G1 F900 X143.363 Y108.714 E58.62499
G0 F2625 X142.655 Y108.714
G1 F900 X170.284 Y136.342 E59.92651
G0 F2625 X170.284 Y137.05
G1 F900 X141.948 Y108.714 E61.26136
G0 F2625 X141.241 Y108.714
G1 F900 X170.284 Y137.757 E62.62952
G0 F2625 X170.284 Y138.464
G1 F900 X140.534 Y108.714 E64.03098
G0 F2625 X139.827 Y108.714
G1 F900 X170.284 Y139.171 E65.46575
G0 F2625 X170.284 Y139.878
G1 F900 X139.12 Y108.714 E66.93382
G0 F2625 X138.413 Y108.714
G1 F900 X170.284 Y140.585 E68.4352
G0 F2625 X170.284 Y141.292
G1 F900 X137.706 Y108.714 E69.96988
G0 F2625 X136.999 Y108.714
G1 F900 X170.284 Y141.999 E71.53787
G0 F2625 X170.284 Y142.706
G1 F900 X136.292 Y108.714 E73.13916
G0 F2625 X135.584 Y108.714
G1 F900 X170.284 Y143.413 E74.77379
G0 F2625 X170.284 Y144.121
G1 F900 X134.877 Y108.714 E76.44174
G0 F2625 X134.17 Y108.714
G1 F900 X170.284 Y144.828 E78.14299
G0 F2625 X170.284 Y145.535
G1 F900 X133.463 Y108.714 E79.87756
G0 F2625 X132.756 Y108.714
G1 F900 X170.284 Y146.242 E81.64542
G0 F2625 X170.284 Y146.949
G1 F900 X132.049 Y108.714 E83.4466
G0 F2625 X131.342 Y108.714
G1 F900 X170.284 Y147.656 E85.28108
G0 F2625 X170.284 Y148.363
G1 F900 X130.635 Y108.714 E87.14886
G0 F2625 X129.928 Y108.714
G1 F900 X170.284 Y149.07 E89.04995
G0 F2625 X170.284 Y149.777
G1 F900 X129.22 Y108.714 E90.98437
G0 F2625 X128.513 Y108.714
G1 F900 X170.284 Y150.485 E92.95211
G0 F2625 X170.284 Y151.192
G1 F900 X127.806 Y108.714 E94.95317
G0 F2625 X127.099 Y108.714
G1 F900 X170.284 Y151.899 E96.98752
G0 F2625 X170.284 Y152.606
G1 F900 X126.392 Y108.714 E99.05519
G0 F2625 X125.685 Y108.714
G1 F900 X170.284 Y153.313 E101.15615
G0 F2625 X170.284 Y154.02
G1 F900 X124.978 Y108.714 E103.29043
G0 F2625 X124.271 Y108.714
G1 F900 X170.284 Y154.727 E105.45801
G0 F2625 X170.284 Y155.434
G1 F900 X123.564 Y108.714 E107.65889
G0 F2625 X122.856 Y108.714
G1 F900 X170.284 Y156.141 E109.8931
G0 F2625 X170.284 Y156.849
G1 F900 X122.149 Y108.714 E112.16064
G0 F2625 X121.442 Y108.714
G1 F900 X170.284 Y157.556 E114.46149
G0 F2625 X170.284 Y158.263
G1 F900 X120.735 Y108.714 E116.79564
G0 F2625 X120.028 Y108.714
G1 F900 X170.284 Y158.97 E119.1631
G0 F2625 X170.284 Y159.677
G1 F900 X119.321 Y108.714 E121.56387
G0 F2625 X118.614 Y108.714
G1 F900 X170.284 Y160.384 E123.99793
G0 F2625 X170.284 Y161.091
G1 F900 X117.907 Y108.714 E126.46531
G0 F2625 X117.2 Y108.714
G1 F900 X170.284 Y161.798 E128.96599
G0 F2625 X170.284 Y162.505
G1 F900 X116.493 Y108.714 E131.49997
G0 F2625 X115.785 Y108.714
G1 F900 X170.284 Y163.212 E134.06728
G0 F2625 X170.284 Y163.92
G1 F900 X115.078 Y108.714 E136.66793
G0 F2625 X114.371 Y108.714
G1 F900 X170.284 Y164.627 E139.30187
G0 F2625 X170.284 Y165.334
G1 F900 X113.664 Y108.714 E141.96913
G0 F2625 X112.957 Y108.714
G1 F900 X170.284 Y166.041 E144.66969
G0 F2625 X170.284 Y166.748
G1 F900 X112.25 Y108.714 E147.40355
G0 F2625 X111.543 Y108.714
G1 F900 X170.284 Y167.455 E150.17072
G0 F2625 X170.284 Y168.162
G1 F900 X110.897 Y108.776 E152.9683
G0 F2625 X110.406 Y108.992
G1 F900 X170.284 Y168.869 E155.789
G0 F2625 X170.284 Y169.576
G1 F900 X110.044 Y109.337 E158.62676
G0 F2625 X109.8 Y109.8
G1 F900 X170.198 Y170.198 E161.47199
G0 F2625 X169.955 Y170.662
G1 F900 X109.714 Y110.421 E164.30982
G0 F2625 X109.714 Y111.128
G1 F900 X169.593 Y171.007 E167.1306
G0 F2625 X169.101 Y171.223
G1 F900 X109.714 Y111.836 E169.9282
G0 F2625 X109.714 Y112.543
G1 F900 X168.455 Y171.283 E172.69534
G0 F2625 X167.748 Y171.283
G1 F900 X109.714 Y113.25 E175.42918
G0 F2625 X109.714 Y113.957
G1 F900 X167.041 Y171.283 E178.12972
G0 F2625 X166.334 Y171.283
G1 F900 X109.714 Y114.664 E180.79695
G0 F2625 X109.714 Y115.371
G1 F900 X165.627 Y171.283 E183.43087
G0 F2625 X164.919 Y171.283
G1 F900 X109.714 Y116.078 E186.03147
G0 F2625 X109.714 Y116.785
G1 F900 X164.212 Y171.283 E188.59876
G0 F2625 X163.505 Y171.283
G1 F900 X109.714 Y117.492 E191.13274
G0 F2625 X109.714 Y118.199
G1 F900 X162.798 Y171.283 E193.63342
G0 F2625 X162.091 Y171.283
G1 F900 X109.714 Y118.907 E196.10077
G0 F2625 X109.714 Y119.614
G1 F900 X161.384 Y171.283 E198.53482
G0 F2625 X160.677 Y171.283
G1 F900 X109.714 Y120.321 E200.93556
G0 F2625 X109.714 Y121.028
G1 F900 X159.97 Y171.283 E203.30299
G0 F2625 X159.263 Y171.283
G1 F900 X109.714 Y121.735 E205.63712
G0 F2625 X109.714 Y122.442
G1 F900 X158.555 Y171.283 E207.93792
G0 F2625 X157.848 Y171.283
G1 F900 X109.714 Y123.149 E210.20541
G0 F2625 X109.714 Y123.856
G1 F900 X157.141 Y171.283 E212.4396
G0 F2625 X156.434 Y171.283
G1 F900 X109.714 Y124.563 E214.64049
G0 F2625 X109.714 Y125.271
G1 F900 X155.727 Y171.283 E216.80804
G0 F2625 X155.02 Y171.283
G1 F900 X109.714 Y125.978 E218.94229
G0 F2625 X109.714 Y126.685
G1 F900 X154.313 Y171.283 E221.04324
G0 F2625 X153.606 Y171.283
G1 F900 X109.714 Y127.392 E223.11088
G0 F2625 X109.714 Y128.099
G1 F900 X152.899 Y171.283 E225.14521
G0 F2625 X152.192 Y171.283
G1 F900 X109.714 Y128.806 E227.14624
G0 F2625 X109.714 Y129.513
G1 F900 X151.484 Y171.283 E229.11394
G0 F2625 X150.777 Y171.283
G1 F900 X109.714 Y130.22 E231.04833
G0 F2625 X109.714 Y130.927
G1 F900 X150.07 Y171.283 E232.94942
G0 F2625 X149.363 Y171.283
G1 F900 X109.714 Y131.634 E234.8172
G0 F2625 X109.714 Y132.342
G1 F900 X148.656 Y171.283 E236.65166
G0 F2625 X147.949 Y171.283
G1 F900 X109.714 Y133.049 E238.45281
G0 F2625 X109.714 Y133.756
G1 F900 X147.242 Y171.283 E240.22065
G0 F2625 X146.535 Y171.283
G1 F900 X109.714 Y134.463 E241.95519
G0 F2625 X109.714 Y135.17
G1 F900 X145.828 Y171.283 E243.65642
G0 F2625 X145.12 Y171.283
G1 F900 X109.714 Y135.877 E245.32433
G0 F2625 X109.714 Y136.584
G1 F900 X144.413 Y171.283 E246.95893
G0 F2625 X143.706 Y171.283
G1 F900 X109.714 Y137.291 E248.56022
G0 F2625 X109.714 Y137.998
G1 F900 X142.999 Y171.283 E250.12821
G0 F2625 X142.292 Y171.283
