;Generated by Cura LulzBot Edition GCodeWriter Version: 3.6.20
;FLAVOR:Marlin
;TIME:10162
;Filament used: 6.42789m
;Layer height: 0.25
;Generated with Cura_SteamEngine 3.6.20
M82 ;absolute extrusion mode
;This G-Code has been generated specifically for the LulzBot TAZ 6 with standard extruder
M73 P0 ; clear GLCD progress bar
M75 ; start GLCD timer
G26 ; clear potential 'probe fail' condition
M107 ; disable fans
M420 S0 ; disable previous leveling matrix
G90 ; absolute positioning
M82 ; set extruder to absolute mode
G92 E0 ; set extruder position to 0
M140 S60.0 ; start bed heating up
M109 R140 ; soften filament before homing Z
G28 ; Home all axis
G1 E-30 F100 ; retract filament
M109 R140 ; wait for extruder to reach wiping temp
G1 X-15 Y100 F3000 ; move above wiper pad
G1 Z1 ; push nozzle into wiper
G1 X-17 Y95 F1000 ; slow wipe
G1 X-17 Y90 F1000 ; slow wipe
G1 X-17 Y85 F1000 ; slow wipe
G1 X-15 Y90 F1000 ; slow wipe
G1 X-17 Y80 F1000 ; slow wipe
G1 X-15 Y95 F1000 ; slow wipe
G1 X-17 Y75 F2000 ; fast wipe
G1 X-15 Y65 F2000 ; fast wipe
G1 X-17 Y70 F2000 ; fast wipe
G1 X-15 Y60 F2000 ; fast wipe
G1 X-17 Y55 F2000 ; fast wipe
G1 X-15 Y50 F2000 ; fast wipe
G1 X-17 Y40 F2000 ; fast wipe
G1 X-15 Y45 F2000 ; fast wipe
G1 X-17 Y35 F2000 ; fast wipe
G1 X-15 Y40 F2000 ; fast wipe
G1 X-17 Y70 F2000 ; fast wipe
G1 X-15 Y30 Z2 F2000 ; fast wipe
G1 X-17 Y35 F2000 ; fast wipe
G1 X-15 Y25 F2000 ; fast wipe
G1 X-17 Y30 F2000 ; fast wipe
G1 X-15 Y25 Z1.5 F1000 ; slow wipe
G1 X-17 Y23 F1000 ; slow wipe
G1 Z10 ; raise extruder
M109 R140 ; wait for extruder to reach probe temp
G1 X-9 Y-9 ; move above first probe point
M204 S100 ; set probing acceleration
G29 ; start auto-leveling sequence
M420 S1 ; activate bed level matrix
M425 Z			     ; use measured Z backlash for compensation
M425 Z F0		     ; turn off measured Z backlash compensation. (if activated in the quality settings, this command will automatically be ignored)
M204 S500 ; restore standard acceleration
G1 X0 Y0 Z15 F5000 ; move up off last probe point
G4 S1 ; pause
M400 ; wait for moves to finish
M117 Heating... ; progress indicator message on LCD
M109 R200 ; wait for extruder to reach printing temp
M190 R60.0 ; wait for bed to reach printing temp
G1 Z2 E0 F75 ; prime tiny bit of filament into the nozzle
M117 TAZ 6 Printing... ; progress indicator message on LCD

M221 S100 T0
G92 E0
G1 F600 E-1
;LAYER_COUNT:228
;LAYER:0
M107
G0 F2625 X106.869 Y105.811 Z0.425
;TYPE:SKIRT
G1 F600 E0
G1 F900 X107.131 Y105.584 E0.01155
G1 X107.741 Y105.11 E0.03728
G1 X108.166 Y104.83 E0.05423
G1 X108.463 Y104.685 E0.06524
G1 X109.178 Y104.381 E0.09112
G1 X109.661 Y104.219 E0.10809
G1 X110.083 Y104.143 E0.12238
G1 X111.148 Y104.022 E0.15808
G1 X111.517 Y104.001 E0.17039
G1 X168.982 Y104.032 E2.08457
G1 X169.46 Y104.068 E2.10054
G1 X169.976 Y104.145 E2.11792
G1 X170.709 Y104.344 E2.14322
G1 X171.435 Y104.636 E2.16928
G1 X171.891 Y104.862 E2.18624
G1 X172.177 Y105.055 E2.19773
G1 X172.801 Y105.525 E2.22375
G1 X173.183 Y105.862 E2.24072
G1 X173.41 Y106.124 E2.25227
G1 X173.889 Y106.739 E2.27823
G1 X174.17 Y107.164 E2.2952
G1 X174.317 Y107.466 E2.30639
G1 X174.62 Y108.18 E2.33223
G1 X174.781 Y108.664 E2.34922
G1 X174.857 Y109.083 E2.36341
G1 X174.978 Y110.147 E2.39908
G1 X174.999 Y110.515 E2.41135
G1 X174.987 Y169.785 E4.38566
G1 X174.958 Y170.215 E4.40002
G1 X174.863 Y170.925 E4.42388
G1 X174.756 Y171.423 E4.44084
G1 X174.657 Y171.707 E4.45086
G1 X174.364 Y172.435 E4.477
G1 X174.137 Y172.892 E4.494
G1 X173.944 Y173.179 E4.50552
G1 X173.472 Y173.805 E4.53164
G1 X173.134 Y174.186 E4.5486
G1 X172.872 Y174.413 E4.56015
G1 X172.26 Y174.889 E4.58597
G1 X171.835 Y175.17 E4.60295
G1 X171.537 Y175.315 E4.61399
G1 X170.822 Y175.619 E4.63987
G1 X170.339 Y175.781 E4.65684
G1 X169.917 Y175.857 E4.67112
G1 X168.852 Y175.978 E4.70682
G1 X168.484 Y175.999 E4.7191
G1 X111.215 Y175.987 E6.62675
G1 X110.782 Y175.958 E6.64121
G1 X110.07 Y175.862 E6.66514
G1 X109.572 Y175.754 E6.68211
G1 X109.291 Y175.656 E6.69203
G1 X108.565 Y175.364 E6.71809
G1 X108.109 Y175.138 E6.73504
G1 X107.821 Y174.944 E6.74661
G1 X107.195 Y174.472 E6.77273
G1 X106.814 Y174.134 E6.78969
G1 X106.587 Y173.873 E6.80121
G1 X106.11 Y173.26 E6.82709
G1 X105.83 Y172.834 E6.84407
G1 X105.683 Y172.534 E6.8552
G1 X105.38 Y171.82 E6.88103
G1 X105.219 Y171.336 E6.89802
G1 X105.143 Y170.918 E6.91218
G1 X105.022 Y169.855 E6.94781
G1 X105.001 Y169.486 E6.96013
G1 X105.014 Y110.204 E8.93483
G1 X105.043 Y109.772 E8.94925
G1 X105.137 Y109.073 E8.97275
G1 X105.244 Y108.575 E8.98971
G1 X105.343 Y108.293 E8.99967
G1 X105.636 Y107.565 E9.02581
G1 X105.863 Y107.108 E9.04281
G1 X106.057 Y106.82 E9.05437
G1 X106.531 Y106.192 E9.08058
G1 X106.869 Y105.811 E9.09755
G1 F600 E8.09755
;MESH:
G0 F2625 X111.117 Y106.598
G0 X111.304 Y108.019
G0 X169.307 Y108.18
G0 X169.332 Y108.084
;TYPE:WALL-INNER
G1 F600 E9.09755
G1 F900 X169.874 Y108.308 E9.11708
G1 X170.337 Y108.663 E9.13652
G1 X170.692 Y109.126 E9.15595
G1 X170.916 Y109.668 E9.17549
G1 X171 Y110.303 E9.19682
G1 X171 Y169.697 E11.17526
G1 X170.916 Y170.332 E11.1966
G1 X170.692 Y170.874 E11.21613
G1 X170.337 Y171.337 E11.23557
G1 X169.874 Y171.692 E11.255
G1 X169.332 Y171.916 E11.27453
G1 X168.697 Y172 E11.29587
G1 X111.303 Y172 E13.20769
G1 X110.668 Y171.916 E13.22902
G1 X110.126 Y171.692 E13.24856
G1 X109.663 Y171.337 E13.26799
G1 X109.308 Y170.874 E13.28743
G1 X109.084 Y170.332 E13.30696
G1 X109 Y169.697 E13.3283
G1 X109 Y110.303 E15.30673
G1 X109.084 Y109.668 E15.32807
G1 X109.308 Y109.126 E15.34761
G1 X109.663 Y108.663 E15.36704
G1 X110.126 Y108.308 E15.38647
G1 X110.668 Y108.084 E15.40601
G1 X111.303 Y108 E15.42735
G1 X168.697 Y108 E17.33916
G1 X169.332 Y108.084 E17.3605
G0 F2625 X169.461 Y107.596
;TYPE:WALL-OUTER
G1 F900 X170.126 Y107.871 E17.38447
G1 X170.693 Y108.307 E17.40829
G1 X171.129 Y108.874 E17.43212
G1 X171.404 Y109.539 E17.45609
G1 X171.5 Y110.268 E17.48058
G1 X171.5 Y169.732 E19.46135
G1 X171.404 Y170.461 E19.48584
G1 X171.129 Y171.126 E19.50981
G1 X170.693 Y171.693 E19.53364
G1 X170.126 Y172.129 E19.55746
G1 X169.461 Y172.404 E19.58143
G1 X168.732 Y172.5 E19.60593
G1 X111.268 Y172.5 E21.52007
G1 X110.539 Y172.404 E21.54457
G1 X109.874 Y172.129 E21.56854
G1 X109.307 Y171.693 E21.59236
G1 X108.871 Y171.126 E21.61619
G1 X108.596 Y170.461 E21.64016
G1 X108.5 Y169.732 E21.66465
G1 X108.5 Y110.268 E23.64542
G1 X108.596 Y109.539 E23.66991
G1 X108.871 Y108.874 E23.69388
G1 X109.307 Y108.307 E23.71771
G1 X109.874 Y107.871 E23.74153
G1 X110.539 Y107.596 E23.7655
G1 X111.268 Y107.5 E23.79
G1 X168.732 Y107.5 E25.70414
G1 X169.461 Y107.596 E25.72864
G0 F2625 X169.692 Y107.691
G0 X169.206 Y108.562
;TYPE:SKIN
G1 F900 X169.629 Y108.736 E25.74387
G1 X169.988 Y109.012 E25.75896
G1 X170.264 Y109.371 E25.77404
G1 X170.438 Y109.794 E25.78928
G1 X170.51 Y110.338 E25.80755
G1 X170.51 Y169.662 E27.78366
G1 X170.438 Y170.206 E27.80194
G1 X170.264 Y170.629 E27.81717
G1 X169.988 Y170.988 E27.83226
G1 X169.629 Y171.264 E27.84734
G1 X169.206 Y171.438 E27.86258
G1 X168.662 Y171.51 E27.88086
G1 X111.338 Y171.51 E29.79034
G1 X110.794 Y171.438 E29.80862
G1 X110.371 Y171.264 E29.82385
G1 X110.012 Y170.988 E29.83894
G1 X109.736 Y170.629 E29.85402
G1 X109.562 Y170.206 E29.86926
G1 X109.49 Y169.662 E29.88754
G1 X109.49 Y110.338 E31.86364
G1 X109.562 Y109.794 E31.88192
G1 X109.736 Y109.371 E31.89715
G1 X110.012 Y109.012 E31.91224
G1 X110.371 Y108.736 E31.92732
G1 X110.794 Y108.562 E31.94256
G1 X111.338 Y108.49 E31.96084
G1 X168.662 Y108.49 E33.87032
G1 X169.206 Y108.562 E33.8886
G0 F2625 X170.257 Y110.153
G1 F900 X168.845 Y108.741 E33.95512
G0 F2625 X168.111 Y108.714
G1 F900 X170.284 Y110.887 E34.05748
G0 F2625 X170.284 Y111.594
G1 F900 X167.404 Y108.714 E34.19315
G0 F2625 X166.697 Y108.714
G1 F900 X170.284 Y112.301 E34.36213
G0 F2625 X170.284 Y113.008
G1 F900 X165.99 Y108.714 E34.56441
G0 F2625 X165.283 Y108.714
G1 F900 X170.284 Y113.715 E34.8
G0 F2625 X170.284 Y114.422
G1 F900 X164.576 Y108.714 E35.06889
G0 F2625 X163.869 Y108.714
G1 F900 X170.284 Y115.129 E35.37109
G0 F2625 X170.284 Y115.836
G1 F900 X163.162 Y108.714 E35.70659
G0 F2625 X162.454 Y108.714
G1 F900 X170.284 Y116.543 E36.07542
G0 F2625 X170.284 Y117.251
G1 F900 X161.747 Y108.714 E36.47758
G0 F2625 X161.04 Y108.714
G1 F900 X170.284 Y117.958 E36.91305
G0 F2625 X170.284 Y118.665
G1 F900 X160.333 Y108.714 E37.38182
G0 F2625 X159.626 Y108.714
G1 F900 X170.284 Y119.372 E37.8839
G0 F2625 X170.284 Y120.079
G1 F900 X158.919 Y108.714 E38.41928
G0 F2625 X158.212 Y108.714
G1 F900 X170.284 Y120.786 E38.98797
G0 F2625 X170.284 Y121.493
G1 F900 X157.505 Y108.714 E39.58996
G0 F2625 X156.798 Y108.714
G1 F900 X170.284 Y122.2 E40.22526
G0 F2625 X170.284 Y122.907
G1 F900 X156.09 Y108.714 E40.89388
G0 F2625 X155.383 Y108.714
G1 F900 X170.284 Y123.614 E41.59582
G0 F2625 X170.284 Y124.322
G1 F900 X154.676 Y108.714 E42.33108
G0 F2625 X153.969 Y108.714
G1 F900 X170.284 Y125.029 E43.09964
G0 F2625 X170.284 Y125.736
G1 F900 X153.262 Y108.714 E43.90151
G0 F2625 X152.555 Y108.714
G1 F900 X170.284 Y126.443 E44.73669
G0 F2625 X170.284 Y127.15
G1 F900 X151.848 Y108.714 E45.60517
G0 F2625 X151.141 Y108.714
G1 F900 X170.284 Y127.857 E46.50696
G0 F2625 X170.284 Y128.564
G1 F900 X150.434 Y108.714 E47.44205
G0 F2625 X149.727 Y108.714
G1 F900 X170.284 Y129.271 E48.41045
G0 F2625 X170.284 Y129.978
G1 F900 X149.019 Y108.714 E49.41218
G0 F2625 X148.312 Y108.714
G1 F900 X170.284 Y130.686 E50.44724
G0 F2625 X170.284 Y131.393
G1 F900 X147.605 Y108.714 E51.5156
G0 F2625 X146.898 Y108.714
G1 F900 X170.284 Y132.1 E52.61727
G0 F2625 X170.284 Y132.807
G1 F900 X146.191 Y108.714 E53.75224
G0 F2625 X145.484 Y108.714
G1 F900 X170.284 Y133.514 E54.92051
G0 F2625 X170.284 Y134.221
G1 F900 X144.777 Y108.714 E56.1221
G0 F2625 X144.07 Y108.714
G1 F900 X170.284 Y134.928 E57.35699
G0 F2625 X170.284 Y135.635
G1 F900 X143.363 Y108.714 E58.62518
G0 F2625 X142.655 Y108.714
G1 F900 X170.284 Y136.342 E59.9267
G0 F2625 X170.284 Y137.05
G1 F900 X141.948 Y108.714 E61.26155
G0 F2625 X141.241 Y108.714
G1 F900 X170.284 Y137.757 E62.62971
G0 F2625 X170.284 Y138.464
G1 F900 X140.534 Y108.714 E64.03117
G0 F2625 X139.827 Y108.714
G1 F900 X170.284 Y139.171 E65.46594
G0 F2625 X170.284 Y139.878
G1 F900 X139.12 Y108.714 E66.93401
G0 F2625 X138.413 Y108.714
G1 F900 X170.284 Y140.585 E68.43539
G0 F2625 X170.284 Y141.292
G1 F900 X137.706 Y108.714 E69.97007
G0 F2625 X136.999 Y108.714
G1 F900 X170.284 Y141.999 E71.53806
G0 F2625 X170.284 Y142.706
G1 F900 X136.292 Y108.714 E73.13935
G0 F2625 X135.584 Y108.714
G1 F900 X170.284 Y143.413 E74.77398
G0 F2625 X170.284 Y144.121
G1 F900 X134.877 Y108.714 E76.44193
G0 F2625 X134.17 Y108.714
G1 F900 X170.284 Y144.828 E78.14319
G0 F2625 X170.284 Y145.535
G1 F900 X133.463 Y108.714 E79.87775
G0 F2625 X132.756 Y108.714
G1 F900 X170.284 Y146.242 E81.64562
G0 F2625 X170.284 Y146.949
G1 F900 X132.049 Y108.714 E83.44679
G0 F2625 X131.342 Y108.714
G1 F900 X170.284 Y147.656 E85.28127
G0 F2625 X170.284 Y148.363
G1 F900 X130.635 Y108.714 E87.14905
G0 F2625 X129.928 Y108.714
G1 F900 X170.284 Y149.07 E89.05014
G0 F2625 X170.284 Y149.777
G1 F900 X129.22 Y108.714 E90.98456
G0 F2625 X128.513 Y108.714
G1 F900 X170.284 Y150.485 E92.9523
G0 F2625 X170.284 Y151.192
G1 F900 X127.806 Y108.714 E94.95336
G0 F2625 X127.099 Y108.714
G1 F900 X170.284 Y151.899 E96.98771
G0 F2625 X170.284 Y152.606
G1 F900 X126.392 Y108.714 E99.05538
G0 F2625 X125.685 Y108.714
G1 F900 X170.284 Y153.313 E101.15635
G0 F2625 X170.284 Y154.02
G1 F900 X124.978 Y108.714 E103.29062
G0 F2625 X124.271 Y108.714
G1 F900 X170.284 Y154.727 E105.4582
G0 F2625 X170.284 Y155.434
G1 F900 X123.564 Y108.714 E107.65908
G0 F2625 X122.856 Y108.714
G1 F900 X170.284 Y156.141 E109.89329
G0 F2625 X170.284 Y156.849
G1 F900 X122.149 Y108.714 E112.16084
G0 F2625 X121.442 Y108.714
G1 F900 X170.284 Y157.556 E114.46168
G0 F2625 X170.284 Y158.263
G1 F900 X120.735 Y108.714 E116.79584
G0 F2625 X120.028 Y108.714
G1 F900 X170.284 Y158.97 E119.16329
G0 F2625 X170.284 Y159.677
G1 F900 X119.321 Y108.714 E121.56406
G0 F2625 X118.614 Y108.714
G1 F900 X170.284 Y160.384 E123.99813
G0 F2625 X170.284 Y161.091
G1 F900 X117.907 Y108.714 E126.4655
G0 F2625 X117.2 Y108.714
G1 F900 X170.284 Y161.798 E128.96618
G0 F2625 X170.284 Y162.505
G1 F900 X116.493 Y108.714 E131.50016
G0 F2625 X115.785 Y108.714
G1 F900 X170.284 Y163.212 E134.06748
G0 F2625 X170.284 Y163.92
G1 F900 X115.078 Y108.714 E136.66812
G0 F2625 X114.371 Y108.714
G1 F900 X170.284 Y164.627 E139.30207
G0 F2625 X170.284 Y165.334
G1 F900 X113.664 Y108.714 E141.96932
G0 F2625 X112.957 Y108.714
G1 F900 X170.284 Y166.041 E144.66988
G0 F2625 X170.284 Y166.748
G1 F900 X112.25 Y108.714 E147.40374
G0 F2625 X111.543 Y108.714
G1 F900 X170.284 Y167.455 E150.17091
G0 F2625 X170.284 Y168.162
G1 F900 X110.897 Y108.776 E152.96849
G0 F2625 X110.406 Y108.992
G1 F900 X170.284 Y168.869 E155.78919
G0 F2625 X170.284 Y169.576
G1 F900 X110.044 Y109.337 E158.62695
G0 F2625 X109.8 Y109.8
G1 F900 X170.198 Y170.198 E161.47218
G0 F2625 X169.955 Y170.662
G1 F900 X109.715 Y110.422 E164.30996
G0 F2625 X109.715 Y111.129
G1 F900 X169.593 Y171.007 E167.13069
G0 F2625 X169.101 Y171.223
G1 F900 X109.715 Y111.836 E169.92827
G0 F2625 X109.715 Y112.543
G1 F900 X168.455 Y171.283 E172.69539
G0 F2625 X167.748 Y171.283
G1 F900 X109.715 Y113.25 E175.42921
G0 F2625 X109.715 Y113.958
G1 F900 X167.041 Y171.283 E178.1297
G0 F2625 X166.334 Y171.283
G1 F900 X109.715 Y114.665 E180.79688
G0 F2625 X109.715 Y115.372
G1 F900 X165.627 Y171.283 E183.43076
G0 F2625 X164.919 Y171.283
G1 F900 X109.715 Y116.079 E186.0313
G0 F2625 X109.715 Y116.786
G1 F900 X164.212 Y171.283 E188.59855
G0 F2625 X163.505 Y171.283
G1 F900 X109.715 Y117.493 E191.13248
G0 F2625 X109.715 Y118.2
G1 F900 X162.798 Y171.283 E193.63312
G0 F2625 X162.091 Y171.283
G1 F900 X109.715 Y118.907 E196.10044
G0 F2625 X109.715 Y119.614
G1 F900 X161.384 Y171.283 E198.53447
G0 F2625 X160.677 Y171.283
G1 F900 X109.715 Y120.321 E200.93518
G0 F2625 X109.715 Y121.029
G1 F900 X159.97 Y171.283 E203.30257
G0 F2625 X159.263 Y171.283
G1 F900 X109.715 Y121.736 E205.63665
G0 F2625 X109.715 Y122.443
G1 F900 X158.555 Y171.283 E207.9374
G0 F2625 X157.848 Y171.283
G1 F900 X109.715 Y123.15 E210.20485
G0 F2625 X109.715 Y123.857
G1 F900 X157.141 Y171.283 E212.43899
G0 F2625 X156.434 Y171.283
G1 F900 X109.715 Y124.564 E214.63983
G0 F2625 X109.715 Y125.271
G1 F900 X155.727 Y171.283 E216.80736
G0 F2625 X155.02 Y171.283
G1 F900 X109.715 Y125.978 E218.94159
G0 F2625 X109.715 Y126.685
G1 F900 X154.313 Y171.283 E221.04251
G0 F2625 X153.606 Y171.283
G1 F900 X109.715 Y127.393 E223.1101
G0 F2625 X109.715 Y128.1
G1 F900 X152.899 Y171.283 E225.14439
G0 F2625 X152.192 Y171.283
G1 F900 X109.715 Y128.807 E227.14537
G0 F2625 X109.715 Y129.514
G1 F900 X151.484 Y171.283 E229.11302
G0 F2625 X150.777 Y171.283
G1 F900 X109.715 Y130.221 E231.04737
G0 F2625 X109.715 Y130.928
G1 F900 X150.07 Y171.283 E232.94841
G0 F2625 X149.363 Y171.283
G1 F900 X109.715 Y131.635 E234.81615
G0 F2625 X109.715 Y132.342
G1 F900 X148.656 Y171.283 E236.65058
G0 F2625 X147.949 Y171.283
G1 F900 X109.715 Y133.049 E238.4517
G0 F2625 X109.715 Y133.757
G1 F900 X147.242 Y171.283 E240.2195
G0 F2625 X146.535 Y171.283
G1 F900 X109.715 Y134.464 E241.95399
G0 F2625 X109.715 Y135.171
G1 F900 X145.828 Y171.283 E243.65518
G0 F2625 X145.12 Y171.283
G1 F900 X109.715 Y135.878 E245.32304
G0 F2625 X109.715 Y136.585
G1 F900 X144.413 Y171.283 E246.95759
G0 F2625 X143.706 Y171.283
G1 F900 X109.715 Y137.292 E248.55884
G0 F2625 X109.715 Y137.999
G1 F900 X142.999 Y171.283 E250.12678
G0 F2625 X142.292 Y171.283
